svgs/flashcards.svg

<svg width="192" height="192" viewBox="0 0 192 192" fill="none" xmlns="http://www.w3.org/2000/svg">
<path d="M46 164V28H146V164H46Z" stroke="black" stroke-width="12" stroke-linejoin="round"/>
<path d="M22 52L46 39V153L22 52Z" stroke="black" stroke-width="12" stroke-linejoin="round"/>
<path d="M170 47L146 34V148L170 47Z" stroke="black" stroke-width="12" stroke-linejoin="round"/>
<path d="M46 142H146" stroke="black" stroke-width="12"/>
<path d="M57.9999 113H87.9999" stroke="black" stroke-width="6" stroke-linecap="round"/>
<path d="M57.9999 99H133" stroke="black" stroke-width="6" stroke-linecap="round"/>
<path d="M57.9999 85H133" stroke="black" stroke-width="6" stroke-linecap="round"/>
<path d="M57.9999 71H133" stroke="black" stroke-width="6" stroke-linecap="round"/>
<path d="M57.9999 57H133" stroke="black" stroke-width="6" stroke-linecap="round"/>
<path d="M57.9999 127H133" stroke="black" stroke-width="6" stroke-linecap="round"/>
<path d="M58 43H88" stroke="black" stroke-width="6" stroke-linecap="round"/>
<path d="M78 148V160" stroke="black" stroke-width="6" stroke-linecap="round"/>
<path d="M115 148V160" stroke="black" stroke-width="6" stroke-linecap="round"/>
</svg>

<svg xmlns="http://www.w3.org/2000/svg" width="192" height="192" fill="none" viewBox="0 0 192 192"><path stroke="#000" stroke-linejoin="round" stroke-width="12" d="M46 164V28h100v136H46ZM22 52l24-13v114L22 52Zm148-5-24-13v114l24-101Z"/><path stroke="#000" stroke-width="12" d="M46 142h100"/><path stroke="#000" stroke-linecap="round" stroke-width="6" d="M58 113h30M58 99h75M58 85h75M58 71h75M58 57h75m-75 70h75M58 43h30M78 148v12m37-12v12"/></svg>
